site/public/social-twitter.svg

<svg width="27" height="22" viewBox="0 0 27 22" fill="none" xmlns="http://www.w3.org/2000/svg">
<path d="M26.8674 2.6061C25.8596 3.04982 24.7919 3.34272 23.6988 3.47536C24.8497 2.7836 25.7115 1.69876 26.1249 0.421176C25.0582 1.04368 23.876 1.49681 22.6176 1.74918C21.7873 0.861334 20.6871 0.272472 19.4878 0.0740346C18.2886 -0.124403 17.0573 0.0786882 15.9853 0.651771C14.9133 1.22485 14.0605 2.13586 13.5594 3.24332C13.0582 4.35078 12.9368 5.59273 13.2139 6.7763C8.62642 6.55983 4.56053 4.35696 1.83946 1.02685C1.3446 1.86786 1.08648 2.82709 1.09246 3.80287C1.09246 5.72085 2.06828 7.40665 3.54658 8.39705C2.67043 8.36916 1.81364 8.13227 1.0476 7.70613V7.77455C1.0471 9.04915 1.48758 10.2847 2.29429 11.2715C3.10101 12.2583 4.22428 12.9357 5.47353 13.1886C4.66405 13.4055 3.81623 13.4381 2.99249 13.284C3.34721 14.3808 4.03541 15.3397 4.96111 16.0267C5.88682 16.7137 7.00386 17.0947 8.15646 17.1166C6.20426 18.6486 3.79385 19.4801 1.3123 19.4776C0.874867 19.4776 0.438555 19.4518 0 19.4024C2.53006 21.0224 5.47186 21.8823 8.47612 21.8801C18.6313 21.8801 24.1777 13.4724 24.1777 6.19306C24.1777 5.95864 24.1777 5.72197 24.1609 5.48643C25.2444 4.70673 26.179 3.73872 26.9201 2.62853L26.8674 2.6061Z" fill="black"/>
</svg>

<svg xmlns="http://www.w3.org/2000/svg" fill="none" width="27" height="22" viewBox="0 0 27 22"><path d="M26.867 2.606a11.217 11.217 0 0 1-3.168.87A5.56 5.56 0 0 0 26.125.42a11.4 11.4 0 0 1-3.507 1.33 5.519 5.519 0 0 0-9.404 5.026C8.626 6.56 4.56 4.356 1.839 1.026a5.409 5.409 0 0 0-.75 2.777 5.52 5.52 0 0 0 2.454 4.594 5.5 5.5 0 0 1-2.5-.69v.068a5.522 5.522 0 0 0 4.427 5.414c-.81.216-1.658.25-2.482.095a5.538 5.538 0 0 0 5.165 3.833 11.068 11.068 0 0 1-6.844 2.36c-.435 0-.871-.025-1.31-.075a15.697 15.697 0 0 0 8.475 2.478c10.155 0 15.702-8.408 15.702-15.687 0-.234 0-.47-.017-.707a11.143 11.143 0 0 0 2.76-2.857l-.054-.023Z" fill="#000"/></svg>
